X:84
T:Hundred Pipers
O:scotland
M:6/8
L:1/8
R:Jig
K:G
G2A|B2D DED|E2G G2e|d2B BAG|B2A AGA|B2D DED|E2G G2e|d2B ABA|G3:|:G2A|B2d
dBd|e2f gfe|d2B BAG|B2A AGA|B2d dBd|e2f gfe|d2B ABA|G3:|
